icons/mobile/24/svg/lightning-24.svg

<svg width="24" height="24" viewBox="0 0 24 24" fill="none" xmlns="http://www.w3.org/2000/svg">
<path fill-rule="evenodd" clip-rule="evenodd" d="M9.76418 3.26887C11.3091 2.94392 12.9182 2.91311 14.4741 3.1761C15.1869 3.29814 15.8008 3.73271 16.1577 4.37043C16.5247 5.02539 16.5744 5.79949 16.2954 6.49446L15.4243 8.66731C16.5412 8.67132 17.5701 8.7318 18.6489 8.85578C19.5409 8.9578 20.3014 9.54312 20.6323 10.3841C20.9681 11.2369 20.8091 12.199 20.2154 12.8939L13.188 21.1341C12.707 21.698 12.0295 21.9984 11.3325 21.9984L11.3335 21.9993C10.9868 21.9993 10.6341 21.9247 10.2993 21.7698C9.28834 21.3028 8.72685 20.2488 8.90285 19.1478L9.59719 14.8079C8.74319 14.7719 7.88843 14.687 7.04543 14.556C6.33469 14.4449 5.7142 14.0216 5.34426 13.3939C4.96733 12.755 4.89706 11.9901 5.1509 11.2962L7.30325 5.42219C7.71025 4.31319 8.63018 3.50887 9.76418 3.26887ZM14.1802 4.90266C12.8402 4.67466 11.4546 4.70174 10.1236 4.98274C9.58272 5.09682 9.14282 5.48684 8.94485 6.02571L6.7925 11.8997C6.71854 12.0997 6.74013 12.3212 6.85012 12.5072C6.91024 12.6102 7.0513 12.7865 7.31399 12.8275C8.40492 12.9975 9.47582 13.0724 10.6157 13.0784H10.6187C10.8737 13.0784 11.1177 13.1901 11.2837 13.3841C11.4507 13.5791 11.5239 13.8382 11.4839 14.0911L10.6314 19.4241C10.5526 19.9179 10.9177 20.128 11.0318 20.181C11.1448 20.232 11.5369 20.3724 11.8579 19.9974L18.8853 11.7581C19.1443 11.4541 19.0414 11.1207 19.0034 11.0247C18.9583 10.9086 18.8125 10.635 18.4507 10.5941C17.3958 10.4741 16.3905 10.4173 15.2896 10.4173C14.9027 10.4173 14.5228 10.4248 14.1519 10.4378C13.8339 10.4438 13.5748 10.3077 13.4048 10.0657C13.2349 9.82375 13.1991 9.51159 13.3091 9.23762L14.6704 5.84407C14.7514 5.64207 14.7364 5.41688 14.6294 5.22688C14.5714 5.12389 14.4379 4.94572 14.1802 4.90266Z" fill="black"/>
</svg>

<!-- This Source Code Form is subject to the terms of the Mozilla Public
   - License, v. 2.0. If a copy of the MPL was not distributed with this
   - file, You can obtain one at http://mozilla.org/MPL/2.0/. -->
<svg xmlns="http://www.w3.org/2000/svg" width="24" height="24" fill="none" viewBox="0 0 24 24">
    <path fill="#000" fill-rule="evenodd" d="M9.764 3.269a12.7 12.7 0 0 1 4.71-.093 2.38 2.38 0 0 1 1.684 1.194c.367.655.416 1.43.137 2.124l-.87 2.173c1.116.004 2.145.065 3.224.189a2.43 2.43 0 0 1 1.983 1.528 2.47 2.47 0 0 1-.417 2.51l-7.027 8.24a2.43 2.43 0 0 1-1.856.864l.002.001c-.347 0-.7-.074-1.035-.23a2.44 2.44 0 0 1-1.396-2.621l.694-4.34a23 23 0 0 1-2.552-.252 2.4 2.4 0 0 1-1.7-1.162 2.46 2.46 0 0 1-.194-2.098l2.152-5.874A3.36 3.36 0 0 1 9.764 3.27m4.416 1.634a10.9 10.9 0 0 0-4.056.08 1.62 1.62 0 0 0-1.18 1.043L6.793 11.9a.7.7 0 0 0 .058.607c.06.103.201.28.464.32 1.09.17 2.162.245 3.302.251h.003a.877.877 0 0 1 .865 1.013l-.853 5.333a.684.684 0 0 0 .4.757c.114.051.506.191.827-.184l7.027-8.239a.72.72 0 0 0 .118-.733.67.67 0 0 0-.552-.43 27 27 0 0 0-3.161-.178q-.581.001-1.138.02a.875.875 0 0 1-.843-1.2l1.361-3.393a.71.71 0 0 0-.04-.617.63.63 0 0 0-.45-.324" clip-rule="evenodd" />
</svg>
